X: 08009
T: B and L WALTZ
C: Bob McQuillen 26 Nov 91
B: Bob's Note Book 8 #8
%R: waltz
Z: 2021 John Chambers <jc:trillian.mit.edu>
M: 3/4
L: 1/4
K: D
FG \
| "D"Af>e | dFA | "G6"BG>F | E2d |"A7"cde | ecA | "D"df>d| "A7"AFG |\
| "D"Af>e | dFA | "G6"BG>F | E2d |"A7"c>d c/B/ | Ace | "D"ed>c | d :|
|: Ad \
| "D"fd>B | Adf | "G6" e>f e/d/ | B2 c/d/ | "A7"c>de | efg | "D"fd>"G"B | "D"AFA |\
| "D"fd>B | Adf | "G6" e>fg | B"G"eg | "D"f>ed | "A7"cde | "D"d3- | d :|
%%begintext align
%% In two days, on the
%% 28th of November (Thanksgiving Day), Lorraine Lee and
%% Bennett Hammond are going to be married. Isn't that
%% super? And so I thought, well, you already know what
%% I thought, and here it is, with many blessings and
%% much love to you both in the happy years ahead --
%%endtext
%%begintext align
%% LATER NOTE: It was a fun day. There was music, and singing and dancing, and a piper piping, and a
%% wonderful turkey dinner cooked by Debby McClatchy. As they say, "a good time was had by all!"
%%endtext

%%sep 1 1 500

%%sep 1 1 500

